X:55
T:De Dessa, De Dela
R:Bourre
M:3/8
L:1/8
N:La Bourre 4th edition 1929, page 60
Z:Steve Mansfield www.lesession.co.uk May 2012
K:Cm
D/ D/ |: G2 A | G/ A/ B c | B A B/ A/ |
G2 A | G/ A/ B B |1 A2 D/ D/ :|2 A2 D/ D/ |
E2 D/ D/ | E2 D | E/ F/ G A | G F D/ D/ |
E2 D/ D/ | E2 D | E/ F/ G A | G3 |]
<end>
<start>
